X: 33231
T: Puffin Isle
R: jig
M: 6/8
K: Gmajor
|:dBd ded|BAG B2e|dBd gdB|A3 ABc|
dBd ded|BAG B2e|d2B ABA|1 G3 GAB:|2 G3 GB/c/d||
|:~e3 efe|dBd d2d|e2e gdB|A3 AB/c/d|
~e3 efe|dBd A2e|d2B ABA|1 G3 GB/c/d:|2 G3 GAB||

